X:1
T:Den Entschlafenen
T:Friedrich Burchard Beneken
T:Johann Peter Lange
T:Den Entschlafenen
T:CPDL   —   Creative Commons Attribution Non Commercial 3.0
C:Friedrich Burchard Beneken
Z:Johann Peter Lange
Z:CPDL   —   Creative Commons Attribution Non Commercial 3.0
%%score [ ( 1 2 ) ( 3 4 ) ]
L:1/8
Q:1/4=80
M:3/4
K:Ab
V:1 treble nm="Sopran\nAlt"
V:2 treble 
V:3 bass nm="Tenor\nBass"
V:4 bass 
V:1
"^Langsam"!p! A2 B2 A2 | AG G2 z2 | B2 A2 G2 | G>!>(!A A2!>)! z2 |!p! e2 d2 c2 | (c2 B2) A2 | %6
w: 1. Wie sie so|sanft _ ruh'n|al- le die|Se- li- gen,|die gläu- big|kämpf- * ten|
w: 2. Du Herr, Ver-|söh- * ner,|ward'st auch in's|Grab ver- senkt,|da du am|Kreu- * ze|
w: 3. O wenn auch|wir _ nun,|wie all' die|Se- li- gen,|mit dir be-|ste- * hen|
"^cresc." B2 d>B c>A |!>(! (c2 B2)!>)! z2 |!pp!!<(! e2!<)! d2 c2 |!>(! cd!>)! d2 z2 | %10
w: den gro- ßen Le- bens-|kampf! _|Wie sie so|sanft _ ruh'n|
w: hat- test für uns voll-|bracht; _|nicht zum Ver-|we- * sen|
w: den schwe- ren Le- bens-|kampf, _|dann wirst, Er-|lö- * ser,|
!pp!!<(! (d2!<)! c2) B2 |!>(! Bc!>)! c2 z2 |!mf!"^cresc." F2 f2 e2 | (e2 d2) cA | FB!>(! (A2 G2) | %15
w: in _ den|Grä- * bern,|bis sie zum|Fes- * te er-|we- cket wer- *|
w: lagst _ du,|Heil'- * ger,|zum gro- ßen|Fes- * te er-|stand'st du wie- *|
w: du _ uns|ru- * fen|aus un- sern|Grä- * bern zum|ew'- gen Fes- *|
 A4 !fermata!z2!>)! |] %16
w: den!|
w: der!|
w: te.|
V:2
 E2 E2 E2 | E2 E2 x2 | F2 E2 E2 | E>E E2 x2 | A2 B2 A2 | (A2 G2) F2 | E2 E>E E>E | E4 x2 | %8
 _G2 F2 F2 | F2 F2 x2 | (_F2 E2) E2 | E2 E2 x2 | F2 FG A2 | G4 AE | FF E4 | E4 x2 |] %16
V:3
!p! C2 D2 C2 | CB, B,2 z2 | D2 C2 B,2 | D>!>(!C!>)! C2 z2 |!p! E2 E2 E2 | (E2 D2) C2 | %6
"^cresc." B,2 G,>G, A,>A, |!>(! (A,2 G,2)!>)! z2 |!pp!!<(! C2 B,2!<)! =A,2 |!>(! =A,B, B,2!>)! z2 | %10
!pp!!<(! (B,2!<)! A,2) G,2 | G,A, A,2 z2 |!mf!"^cresc." A,2 B,2 C2 | E4 EE | DD!>(! (C2 B,2) | %15
 C4!>)! !fermata!z2 |] %16
V:4
 A,2 G,2 A,2 | E,2 E,2 x2 | D,2 E,2 E,2 | A,>A, A,2 x2 | C2 G,2 A,2 | (E,2 =E,2) F,2 | %6
 G,2 E,>E, A,,>C, | E,4 x2 | E,2 F,2 F,2 | B,,2 B,,2 x2 | (D,2 E,2) E,2 | A,,2 A,,2 x2 | %12
 D,2 D,2 C,2 | (B,,2 E,2) A,,C, | D,B,, E,4 | A,,4 x2 |] %16

